X: 28957
T: Nancy Under The Hill
R: slide
M: 12/8
K: Dmajor
|:A|d3 faf e2 d c2 A-|A2 c d3 BAG F2 D|
d3 f/g/af e2 d cAA|1 BB/c/d edc d3 D2:|2 BB/c/d edc d3- d2||
|:g|f2 g a3 b2 f g2 e|f2 d c2 d e3 A3|
B2 d c2 e d2 f e2 g|1 f/g/af edc d3- d2:|2 f/g/af edc d3 D2||

